X: 24
T:The 
R:
C:Dave Panting
Z:Gerry Strong,  18/10/1999
M:3/4
L:1/8
K:D
AF|D4 DA|F A3 cA|d4 cA|B G3 GB|
D4 DA|F A3 cA|dB G2 F2|E4 EA|
D4 DA|F A3 cA|d4 cA|B d3 (3BdB|
AF D3 A|BG d2 (3FAF|E4 {G}ED |D4||
A2|f2 d2 A2|e4 cA|d4 cA|B G3 A2|
f2 d2 A2|e4 cA|dB G2 F2|E4 A2|
f2 d2 A2|e4 cA|d4 cA|B d3 (3BdB|
AF D3 A|Bc d2 (3FAF|E4 {G}ED|D4|]
